packages/ffe-icons/icons/open/300/md/difference.svg

<svg xmlns="http://www.w3.org/2000/svg" height="24" viewBox="0 -960 960 960" width="24"><path d="M510.001-610.001V-560q0 12.75 8.628 21.375 8.629 8.624 21.384 8.624 12.756 0 21.371-8.624 8.615-8.625 8.615-21.375v-50.001H620q12.75 0 21.375-8.628 8.624-8.629 8.624-21.384 0-12.756-8.624-21.371-8.625-8.615-21.375-8.615h-50.001V-720q0-12.75-8.628-21.375-8.629-8.624-21.384-8.624-12.756 0-21.371 8.624-8.615 8.625-8.615 21.375v50.001H460q-12.75 0-21.374 8.628-8.625 8.629-8.625 21.384 0 12.756 8.625 21.371 8.624 8.615 21.374 8.615h50.001Zm-50.001 240h160q12.75 0 21.375-8.628 8.624-8.629 8.624-21.384 0-12.756-8.624-21.371-8.625-8.615-21.375-8.615H460q-12.75 0-21.374 8.628-8.625 8.629-8.625 21.384 0 12.756 8.625 21.371 8.624 8.615 21.374 8.615Zm-127.691 150q-30.308 0-51.308-21t-21-51.308v-535.382q0-30.308 21-51.308t51.308-21h247.769q14.632 0 27.893 5.616 13.26 5.615 23.107 15.461l167.844 167.844q9.846 9.847 15.461 23.107 5.616 13.261 5.616 27.893v367.769q0 30.308-21 51.308t-51.308 21H332.309Zm0-59.999h415.382q4.616 0 8.463-3.846 3.846-3.847 3.846-8.463v-367.692L580.001-840H332.309q-4.616 0-8.463 3.846-3.846 3.847-3.846 8.463v535.382q0 4.616 3.846 8.463 3.847 3.846 8.463 3.846Zm-160 219.999q-30.308 0-51.308-21t-21-51.308v-497.69q0-12.75 8.629-21.375t21.384-8.625q12.756 0 21.371 8.625Q160-642.749 160-629.999v497.69q0 4.616 3.846 8.463 3.847 3.846 8.463 3.846h377.69q12.75 0 21.375 8.629 8.625 8.628 8.625 21.384 0 12.755-8.625 21.37Q562.749-60 549.999-60h-377.69ZM320-280V-840v560Z"/></svg>

<svg xmlns="http://www.w3.org/2000/svg" height="24" viewBox="0 -960 960 960" width="24"><path d="M510-610v50q0 12.75 8.63 21.37 8.63 8.63 21.38 8.63 12.76 0 21.37-8.63Q570-547.25 570-560v-50h50q12.75 0 21.37-8.63 8.63-8.63 8.63-21.38 0-12.76-8.63-21.37Q632.75-670 620-670h-50v-50q0-12.75-8.63-21.37-8.63-8.63-21.38-8.63-12.76 0-21.37 8.63Q510-732.75 510-720v50h-50q-12.75 0-21.37 8.63-8.63 8.63-8.63 21.38 0 12.76 8.63 21.37Q447.25-610 460-610h50Zm-50 240h160q12.75 0 21.37-8.63 8.63-8.63 8.63-21.38 0-12.76-8.63-21.37Q632.75-430 620-430H460q-12.75 0-21.37 8.63-8.63 8.63-8.63 21.38 0 12.76 8.63 21.37Q447.25-370 460-370ZM332.31-220Q302-220 281-241q-21-21-21-51.31v-535.38Q260-858 281-879q21-21 51.31-21h247.77q14.63 0 27.89 5.62 13.26 5.61 23.11 15.46l167.84 167.84q9.85 9.85 15.46 23.11 5.62 13.26 5.62 27.89v367.77Q820-262 799-241q-21 21-51.31 21H332.31Zm0-60h415.38q4.62 0 8.46-3.85 3.85-3.84 3.85-8.46V-660L580-840H332.31q-4.62 0-8.46 3.85-3.85 3.84-3.85 8.46v535.38q0 4.62 3.85 8.46 3.84 3.85 8.46 3.85Zm-160 220Q142-60 121-81q-21-21-21-51.31V-630q0-12.75 8.63-21.37 8.63-8.63 21.38-8.63 12.76 0 21.37 8.63Q160-642.75 160-630v497.69q0 4.62 3.85 8.46 3.84 3.85 8.46 3.85H550q12.75 0 21.37 8.63 8.63 8.63 8.63 21.38 0 12.76-8.63 21.37Q562.75-60 550-60H172.31ZM320-280v-560V-280Z"/></svg>
